icon/gr/database.svg

<svg xmlns="http://www.w3.org/2000/svg" width="24" height="24"><path fill="none" stroke="#000" stroke-width="2" d="M1 2h22v7H1V2Zm3 10h1v1H4v-1Zm0-7h1v1H4V5Zm0 14h1v1H4v-1Zm-3-3h22v7H1v-7Zm0-7h22v7H1V9Z"/></svg>

<svg xmlns="http://www.w3.org/2000/svg" viewBox="0 0 24 24" height="1em" width="1em">
  <path fill="none" stroke="#000" stroke-width="2" d="M1,2 L23,2 L23,9 L1,9 L1,2 Z M4,12 L5,12 L5,13 L4,13 L4,12 Z M4,5 L5,5 L5,6 L4,6 L4,5 Z M4,19 L5,19 L5,20 L4,20 L4,19 Z M1,16 L23,16 L23,23 L1,23 L1,16 Z M1,9 L23,9 L23,16 L1,16 L1,9 Z"/>
</svg>
